flaticon/business/open.svg

<svg xmlns="http://www.w3.org/2000/svg" width="32" height="32" viewBox="0 0 24 24">
    <path d="M 20.566406 9.398438 L 13.980469 2.816406 C 13.886719 1.800781 13.039062 1 12 1 C 10.960938 1 10.113281 1.800781 10.019531 2.816406 L 3.433594 9.398438 L 0 9.398438 L 0 23 L 24 23 L 24 9.398438 Z M 12 1.800781 C 12.660156 1.800781 13.199219 2.339844 13.199219 3 C 13.199219 3.660156 12.660156 4.199219 12 4.199219 C 11.339844 4.199219 10.800781 3.660156 10.800781 3 C 10.800781 2.339844 11.339844 1.800781 12 1.800781 Z M 10.167969 3.796875 C 10.476562 4.503906 11.179688 5 12 5 C 12.820312 5 13.523438 4.503906 13.832031 3.796875 L 19.433594 9.398438 L 4.566406 9.398438 Z M 23.199219 22.199219 L 0.800781 22.199219 L 0.800781 10.199219 L 23.199219 10.199219 Z M 23.199219 22.199219"/>
    <path d="M4.800781 11.800781C3.695312 11.800781 2.800781 12.695312 2.800781 13.800781L2.800781 18.601562C2.800781 19.703125 3.695312 20.601562 4.800781 20.601562 5.902344 20.601562 6.800781 19.703125 6.800781 18.601562L6.800781 13.800781C6.800781 12.695312 5.902344 11.800781 4.800781 11.800781zM6 18.601562C6 19.261719 5.460938 19.800781 4.800781 19.800781 4.136719 19.800781 3.601562 19.261719 3.601562 18.601562L3.601562 13.800781C3.601562 13.136719 4.136719 12.601562 4.800781 12.601562 5.460938 12.601562 6 13.136719 6 13.800781zM9.601562 11.800781C8.496094 11.800781 7.601562 12.695312 7.601562 13.800781L7.601562 20.199219C7.601562 20.421875 7.777344 20.601562 8 20.601562 8.222656 20.601562 8.398438 20.421875 8.398438 20.199219L8.398438 17.390625C8.734375 17.644531 9.148438 17.800781 9.601562 17.800781 10.703125 17.800781 11.601562 16.902344 11.601562 15.800781L11.601562 13.800781C11.601562 12.695312 10.703125 11.800781 9.601562 11.800781zM10.800781 15.800781C10.800781 16.460938 10.261719 17 9.601562 17 8.9375 17 8.398438 16.460938 8.398438 15.800781L8.398438 13.800781C8.398438 13.136719 8.9375 12.601562 9.601562 12.601562 10.261719 12.601562 10.800781 13.136719 10.800781 13.800781zM20.398438 18.121094L17.972656 12.050781C17.972656 12.050781 17.96875 12.050781 17.96875 12.046875 17.953125 12.011719 17.929688 11.984375 17.90625 11.953125 17.898438 11.941406 17.894531 11.929688 17.882812 11.917969 17.875 11.90625 17.859375 11.902344 17.847656 11.890625 17.820312 11.871094 17.789062 11.847656 17.757812 11.832031 17.75 11.828125 17.738281 11.828125 17.730469 11.824219 17.691406 11.8125 17.648438 11.800781 17.605469 11.800781 17.601562 11.800781 17.601562 11.800781 17.601562 11.800781 17.574219 11.800781 17.554688 11.808594 17.53125 11.8125 17.503906 11.820312 17.476562 11.816406 17.453125 11.828125 17.449219 11.828125 17.449219 11.828125 17.449219 11.832031 17.414062 11.84375 17.382812 11.867188 17.351562 11.894531 17.34375 11.902344 17.328125 11.90625 17.316406 11.917969 17.304688 11.929688 17.296875 11.949219 17.285156 11.964844 17.265625 11.992188 17.246094 12.015625 17.230469 12.042969 17.226562 12.054688 17.230469 12.0625 17.226562 12.074219 17.210938 12.113281 17.203125 12.152344 17.199219 12.195312 17.199219 12.199219 17.199219 12.199219 17.199219 12.199219L17.199219 20.199219C17.199219 20.421875 17.378906 20.601562 17.601562 20.601562 17.820312 20.601562 18 20.421875 18 20.199219L18 14.277344 20.429688 20.347656C20.429688 20.347656 20.429688 20.351562 20.429688 20.351562 20.433594 20.359375 20.4375 20.363281 20.441406 20.371094 20.460938 20.410156 20.480469 20.441406 20.507812 20.46875 20.519531 20.480469 20.527344 20.488281 20.539062 20.496094 20.566406 20.519531 20.59375 20.539062 20.621094 20.554688 20.636719 20.558594 20.648438 20.566406 20.660156 20.570312 20.707031 20.589844 20.75 20.597656 20.800781 20.597656 20.847656 20.597656 20.898438 20.589844 20.949219 20.570312 20.949219 20.570312 20.949219 20.570312 20.953125 20.570312 20.988281 20.554688 21.015625 20.53125 21.046875 20.507812 21.054688 20.5 21.070312 20.492188 21.082031 20.484375 21.09375 20.46875 21.101562 20.453125 21.113281 20.4375 21.132812 20.410156 21.15625 20.386719 21.167969 20.355469 21.171875 20.347656 21.171875 20.335938 21.171875 20.328125 21.1875 20.285156 21.199219 20.246094 21.199219 20.203125 21.199219 20.203125 21.199219 20.199219 21.199219 20.199219L21.199219 12.199219C21.199219 11.976562 21.019531 11.800781 20.800781 11.800781 20.578125 11.800781 20.398438 11.976562 20.398438 12.199219zM16 12.601562C16.222656 12.601562 16.398438 12.421875 16.398438 12.199219 16.398438 11.980469 16.222656 11.800781 16 11.800781L12.800781 11.800781C12.578125 11.800781 12.398438 11.980469 12.398438 12.199219L12.398438 20.199219C12.398438 20.421875 12.578125 20.601562 12.800781 20.601562L16 20.601562C16.222656 20.601562 16.398438 20.421875 16.398438 20.199219 16.398438 19.980469 16.222656 19.800781 16 19.800781L13.199219 19.800781 13.199219 16.601562 16 16.601562C16.222656 16.601562 16.398438 16.421875 16.398438 16.199219 16.398438 15.980469 16.222656 15.800781 16 15.800781L13.199219 15.800781 13.199219 12.601562zM16 12.601562"/>
</svg>

<svg xmlns="http://www.w3.org/2000/svg" width="32" height="32" viewBox="0 0 24 24">
    <path d="M20.566 9.398L13.98 2.816A1.995 1.995 0 0 0 12 1c-1.04 0-1.887.8-1.98 1.816L3.434 9.398H0V23h24V9.398zM12 1.801c.66 0 1.2.539 1.2 1.199s-.54 1.2-1.2 1.2c-.66 0-1.2-.54-1.2-1.2 0-.66.54-1.2 1.2-1.2zm-1.832 1.996A2 2 0 0 0 12 5a2 2 0 0 0 1.832-1.203l5.602 5.601H4.566zm13.031 18.402H.801v-12h22.398zm0 0"/>
    <path d="M4.8 11.8c-1.105 0-2 .895-2 2v4.802c0 1.101.895 2 2 2 1.102 0 2-.899 2-2V13.8c0-1.106-.898-2-2-2zM6 18.603a1.2 1.2 0 1 1-2.398 0V13.8A1.2 1.2 0 0 1 6 13.8zm0 0M9.602 11.8c-1.106 0-2 .895-2 2v6.4a.398.398 0 1 0 .796 0v-2.81c.336.255.75.41 1.204.41 1.101 0 2-.898 2-2v-2c0-1.105-.899-2-2-2zm1.199 4a1.202 1.202 0 0 1-2.403 0v-2a1.2 1.2 0 0 1 2.403 0zm0 0M20.398 18.121l-2.425-6.07s-.004 0-.004-.004c-.016-.035-.04-.063-.063-.094-.008-.012-.011-.023-.023-.035-.008-.012-.024-.016-.035-.027-.028-.02-.059-.043-.09-.059-.008-.004-.02-.004-.028-.008a.443.443 0 0 0-.125-.023h-.003c-.028 0-.047.008-.07.011-.028.008-.055.004-.079.016-.004 0-.004 0-.004.004a.296.296 0 0 0-.097.063c-.008.007-.024.011-.036.023-.011.012-.02.031-.03.047-.02.027-.04.05-.056.078-.003.012 0 .02-.003.031a.42.42 0 0 0-.028.121V20.2a.401.401 0 0 0 .8 0l.001-5.922 2.43 6.07v.005c.004.007.008.011.011.02a.358.358 0 0 0 .098.124.534.534 0 0 0 .082.059c.016.004.027.011.04.015.046.02.089.028.14.028a.413.413 0 0 0 .148-.028h.004c.035-.015.063-.039.094-.062.008-.008.023-.016.035-.024.012-.015.02-.03.031-.047.02-.027.043-.05.055-.082.004-.007.004-.02.004-.027a.36.36 0 0 0 .027-.125V12.2a.398.398 0 0 0-.398-.398.398.398 0 0 0-.403.398zm0 0M16 12.602c.223 0 .398-.18.398-.403a.398.398 0 0 0-.398-.398h-3.2a.401.401 0 0 0-.402.398v8c0 .223.18.403.403.403H16c.223 0 .398-.18.398-.403a.398.398 0 0 0-.398-.398h-2.8v-3.2H16c.223 0 .398-.18.398-.402a.398.398 0 0 0-.398-.398h-2.8v-3.2zm0 0"/>
</svg>
